notes/static/assets/journal-text.svg

<?xml version="1.0" encoding="UTF-8" standalone="no"?>
<svg
   xmlns:dc="http://purl.org/dc/elements/1.1/"
   xmlns:cc="http://creativecommons.org/ns#"
   xmlns:rdf="http://www.w3.org/1999/02/22-rdf-syntax-ns#"
   xmlns:svg="http://www.w3.org/2000/svg"
   xmlns="http://www.w3.org/2000/svg"
   xmlns:sodipodi="http://sodipodi.sourceforge.net/DTD/sodipodi-0.dtd"
   xmlns:inkscape="http://www.inkscape.org/namespaces/inkscape"
   width="16"
   height="16"
   fill="currentColor"
   class="bi bi-journal-text"
   viewBox="0 0 16 16"
   version="1.1"
   id="svg68"
   sodipodi:docname="journal-text.svg"
   inkscape:version="0.92.5 (0.92.5+69)">
  <metadata
     id="metadata74">
    <rdf:RDF>
      <cc:Work
         rdf:about="">
        <dc:format>image/svg+xml</dc:format>
        <dc:type
           rdf:resource="http://purl.org/dc/dcmitype/StillImage" />
      </cc:Work>
    </rdf:RDF>
  </metadata>
  <defs
     id="defs72" />
  <sodipodi:namedview
     pagecolor="#ffffff"
     bordercolor="#666666"
     borderopacity="1"
     objecttolerance="10"
     gridtolerance="10"
     guidetolerance="10"
     inkscape:pageopacity="0"
     inkscape:pageshadow="2"
     inkscape:window-width="1853"
     inkscape:window-height="1025"
     id="namedview70"
     showgrid="false"
     inkscape:zoom="52.75"
     inkscape:cx="8"
     inkscape:cy="8"
     inkscape:window-x="67"
     inkscape:window-y="27"
     inkscape:window-maximized="1"
     inkscape:current-layer="svg68" />
  <path
     d="M5 10.5a.5.5 0 0 1 .5-.5h2a.5.5 0 0 1 0 1h-2a.5.5 0 0 1-.5-.5zm0-2a.5.5 0 0 1 .5-.5h5a.5.5 0 0 1 0 1h-5a.5.5 0 0 1-.5-.5zm0-2a.5.5 0 0 1 .5-.5h5a.5.5 0 0 1 0 1h-5a.5.5 0 0 1-.5-.5zm0-2a.5.5 0 0 1 .5-.5h5a.5.5 0 0 1 0 1h-5a.5.5 0 0 1-.5-.5z"
     id="path62"
     style="fill:#00ff00" />
  <path
     d="M3 0h10a2 2 0 0 1 2 2v12a2 2 0 0 1-2 2H3a2 2 0 0 1-2-2v-1h1v1a1 1 0 0 0 1 1h10a1 1 0 0 0 1-1V2a1 1 0 0 0-1-1H3a1 1 0 0 0-1 1v1H1V2a2 2 0 0 1 2-2z"
     id="path64" />
  <path
     d="M1 5v-.5a.5.5 0 0 1 1 0V5h.5a.5.5 0 0 1 0 1h-2a.5.5 0 0 1 0-1H1zm0 3v-.5a.5.5 0 0 1 1 0V8h.5a.5.5 0 0 1 0 1h-2a.5.5 0 0 1 0-1H1zm0 3v-.5a.5.5 0 0 1 1 0v.5h.5a.5.5 0 0 1 0 1h-2a.5.5 0 0 1 0-1H1z"
     id="path66" />
  <path
     style="fill:#00ff00;stroke-width:0.01895735"
     d="M 0.33037907,5.9588973 C 0.22149189,5.9200836 0.12597653,5.8340243 0.06729858,5.7218619 -0.03319853,5.5297626 0.0135906,5.279056 0.17665996,5.1358791 0.29975528,5.0278 0.35357035,5.0140904 0.69071769,5.0049207 l 0.30588354,-0.00832 0.008319,-0.3058835 C 1.0140904,4.3535704 1.0278,4.2997553 1.1358791,4.17666 1.3327944,3.9523859 1.7055883,3.9646244 1.8860984,4.201289 1.9726544,4.3147715 1.9865045,4.3848462 1.9866241,4.7099001 l 1.137e-4,0.2871512 0.3080569,0.00669 c 0.2925651,0.00635 0.313519,0.00937 0.4166747,0.060025 0.05974,0.029336 0.1343173,0.084516 0.1657279,0.1226221 0.1201633,0.145779 0.144753,0.36373 0.05982,0.5302129 -0.050174,0.098349 -0.188587,0.2195166 -0.2831104,0.2478364 -0.1159884,0.034751 -2.22459288,0.029725 -2.32351967,-0.00554 z"
     id="path76"
     inkscape:connector-curvature="0" />
  <path
     style="fill:#00ff00;stroke-width:0.01895735"
     d="M 2.7545024,15.975663 C 2.0974834,15.898291 1.4932854,15.459189 1.1993951,14.845486 1.0404676,14.513612 1.0009882,14.243749 1.0009637,13.4891 l -1.58e-5,-0.488152 h 0.492891 0.492891 l 3.291e-4,0.535545 c 2.449e-4,0.398566 0.00749,0.569487 0.028314,0.668246 0.072651,0.344506 0.3055369,0.613014 0.6466318,0.74554 l 0.1304124,0.05067 5.127962,0.0053 c 3.7614798,0.0039 5.1625538,-4.45e-4 5.2577748,-0.01624 0.376583,-0.06248 0.698647,-0.364746 0.798953,-0.749848 0.02519,-0.0967 0.02855,-0.836975 0.0283,-6.2337064 -3.09e-4,-6.7509908 0.009,-6.2397795 -0.118,-6.4824044 C 13.805107,1.3668205 13.611045,1.177573 13.455737,1.1030928 13.206109,0.98337993 13.603022,0.99148019 7.98673,0.99148019 c -4.9333398,0 -5.1419596,0.001385 -5.2511849,0.034857 C 2.4589556,1.1110872 2.2389025,1.288863 2.1122605,1.5298632 2.0015527,1.7405404 1.9874345,1.8449665 1.987059,2.4559242 l -3.291e-4,0.535545 H 1.4938389 1.0009479 L 1.0012764,2.4938389 C 1.0017879,1.7189969 1.0381395,1.4900896 1.2187863,1.1241706 1.4794786,0.59611124 1.9211642,0.2353741 2.5142098,0.06616147 L 2.6597156,0.02464455 7.9298578,0.01967641 C 12.667564,0.01521019 13.216173,0.01773579 13.360085,0.04467526 14.122277,0.18735283 14.71989,0.7447978 14.93158,1.5105425 L 14.98199,1.692891 V 7.9962085 14.299526 L 14.92984,14.4891 c -0.223354,0.811921 -0.880542,1.386606 -1.700907,1.487376 -0.194763,0.02392 -10.2710115,0.02314 -10.4744306,-8.13e-4 z"
     id="path78"
     inkscape:connector-curvature="0" />
  <path
     style="fill:#00ff00;stroke-width:0.01895735"
     d="m 0.29004739,8.9368097 c -0.3667076,-0.1733613 -0.36985857,-0.691115 -0.005312,-0.8727765 0.0932477,-0.046467 0.1131363,-0.048867 0.40495048,-0.048867 H 0.9965728 l 0.007286,-0.317761 c 0.00719,-0.3137817 0.00802,-0.3190639 0.065738,-0.421801 0.1670408,-0.2973216 0.5410591,-0.3539747 0.7772957,-0.117738 0.115698,0.115698 0.1297555,0.1702319 0.1363022,0.528768 l 0.00594,0.3254965 0.3352887,0.00628 C 2.69165,8.0252907 2.7166111,8.0316977 2.8365885,8.1499768 3.0765567,8.3865482 3.0191906,8.7849782 2.7239798,8.932088 L 2.6238353,8.9819905 1.5043347,8.9818009 0.38483412,8.9816114 0.29004739,8.9368009 Z"
     id="path80"
     inkscape:connector-curvature="0" />
  <path
     style="fill:#000000;stroke-width:0.01895735"
     d="M 0.33744076,11.959535 C 0.21233187,11.916108 0.07285584,11.776779 0.03798659,11.660396 -0.01751243,11.475156 0.02570139,11.285515 0.15224738,11.158969 0.27606125,11.035155 0.32938542,11.020593 0.68341232,11.013918 l 0.31753558,-0.006 v -0.253743 c 0,-0.139558 0.00927,-0.296955 0.020594,-0.349771 0.042906,-0.200064 0.2180999,-0.363844 0.4185955,-0.391325 0.1976595,-0.027092 0.4130236,0.0958 0.5019883,0.286435 0.040605,0.08701 0.044248,0.120056 0.044418,0.402844 l 1.853e-4,0.308057 0.3080568,4.16e-4 c 0.3438063,4.64e-4 0.4178061,0.01932 0.5419456,0.138097 0.2449488,0.234365 0.1806082,0.642999 -0.1249346,0.793469 l -0.089997,0.04432 -1.0900473,0.0045 c -1.03030448,0.0043 -1.09576198,0.0025 -1.19431284,-0.03169 z"
     id="path82"
     inkscape:connector-curvature="0" />
  <path
     style="fill:#000000;stroke-width:0.01895735"
     d="M 0.33744076,11.959157 C 0.2123677,11.916196 0.07295338,11.777104 0.03798659,11.660396 c -0.07989534,-0.266667 0.04869058,-0.533059 0.30012528,-0.62177 0.0574576,-0.02027 0.16185556,-0.0282 0.37138058,-0.0282 H 1.0009479 v -0.254992 c 0,-0.140245 0.00927,-0.298203 0.020594,-0.351019 0.029718,-0.138569 0.120302,-0.260966 0.2448084,-0.330783 0.089892,-0.05041 0.1225593,-0.05829 0.2369668,-0.0572 0.2055884,0.002 0.3580234,0.102401 0.4440088,0.292577 0.033637,0.0744 0.038624,0.124712 0.038987,0.393365 l 4.163e-4,0.308057 0.3080568,4.16e-4 c 0.2686524,3.63e-4 0.3189689,0.0053 0.393365,0.03899 0.3263958,0.147576 0.4020436,0.54614 0.1512572,0.796927 -0.1517008,0.151701 -0.1322292,0.149545 -1.3442715,0.148833 -0.98245979,-5.77e-4 -1.06045577,-0.003 -1.15769664,-0.03643 z"
     id="path84"
     inkscape:connector-curvature="0" />
  <path
     style="fill:#00ff00;stroke-width:0.01895735"
     d="M 0.33744076,11.959157 C 0.2123677,11.916196 0.07295338,11.777104 0.03798659,11.660396 -0.041863,11.393881 0.08732389,11.123789 0.33501674,11.039392 c 0.0616982,-0.02102 0.16465299,-0.02896 0.37546931,-0.02896 H 1.0009479 V 10.75544 c 0,-0.140245 0.00927,-0.298203 0.020594,-0.351019 0.029718,-0.138569 0.120302,-0.260966 0.2448084,-0.330783 0.089316,-0.05008 0.1232922,-0.05839 0.2369668,-0.0579 0.1510084,6.41e-4 0.244661,0.03993 0.344899,0.144695 0.1187759,0.12414 0.1376324,0.198139 0.1380971,0.541946 l 4.163e-4,0.308057 0.3080568,4.16e-4 c 0.2686524,3.63e-4 0.3189689,0.0053 0.393365,0.03899 0.3263958,0.147576 0.4020436,0.54614 0.1512572,0.796927 -0.1517008,0.151701 -0.1322292,0.149545 -1.3442715,0.148833 -0.98245979,-5.77e-4 -1.06045577,-0.003 -1.15769664,-0.03643 z"
     id="path86"
     inkscape:connector-curvature="0" />
</svg>

<?xml version="1.0" encoding="UTF-8" standalone="no"?>
<svg
   xmlns:dc="http://purl.org/dc/elements/1.1/"
   xmlns:cc="http://creativecommons.org/ns#"
   xmlns:rdf="http://www.w3.org/1999/02/22-rdf-syntax-ns#"
   xmlns:svg="http://www.w3.org/2000/svg"
   xmlns="http://www.w3.org/2000/svg"
   xmlns:sodipodi="http://sodipodi.sourceforge.net/DTD/sodipodi-0.dtd"
   xmlns:inkscape="http://www.inkscape.org/namespaces/inkscape"
   width="16"
   height="16"
   fill="currentColor"
   class="bi bi-journal-text"
   viewBox="0 0 16 16"
   version="1.1"
   id="svg68"
   sodipodi:docname="journal-text.svg"
   inkscape:version="0.92.5 (0.92.5+69)">
  <metadata
     id="metadata74">
    <rdf:RDF>
      <cc:Work
         rdf:about="">
        <dc:format>image/svg+xml</dc:format>
        <dc:type
           rdf:resource="http://purl.org/dc/dcmitype/StillImage" />
      </cc:Work>
    </rdf:RDF>
  </metadata>
  <defs
     id="defs72" />
  <sodipodi:namedview
     pagecolor="#ffffff"
     bordercolor="#666666"
     borderopacity="1"
     objecttolerance="10"
     gridtolerance="10"
     guidetolerance="10"
     inkscape:pageopacity="0"
     inkscape:pageshadow="2"
     inkscape:window-width="1533"
     inkscape:window-height="845"
     id="namedview70"
     showgrid="false"
     inkscape:zoom="52.75"
     inkscape:cx="8"
     inkscape:cy="9.5165877"
     inkscape:window-x="67"
     inkscape:window-y="27"
     inkscape:window-maximized="1"
     inkscape:current-layer="svg68" />
  <path
     d="M 5,10.5 A 0.5,0.5 0 0 1 5.5,10 h 2 a 0.5,0.5 0 0 1 0,1 h -2 A 0.5,0.5 0 0 1 5,10.5 Z m 0,-2 A 0.5,0.5 0 0 1 5.5,8 h 5 a 0.5,0.5 0 0 1 0,1 h -5 A 0.5,0.5 0 0 1 5,8.5 Z m 0,-2 A 0.5,0.5 0 0 1 5.5,6 h 5 a 0.5,0.5 0 0 1 0,1 h -5 A 0.5,0.5 0 0 1 5,6.5 Z m 0,-2 A 0.5,0.5 0 0 1 5.5,4 h 5 a 0.5,0.5 0 0 1 0,1 h -5 A 0.5,0.5 0 0 1 5,4.5 Z"
     id="path62"
     style="fill:#00ff00"
     inkscape:connector-curvature="0" />
  <path
     d="M3 0h10a2 2 0 0 1 2 2v12a2 2 0 0 1-2 2H3a2 2 0 0 1-2-2v-1h1v1a1 1 0 0 0 1 1h10a1 1 0 0 0 1-1V2a1 1 0 0 0-1-1H3a1 1 0 0 0-1 1v1H1V2a2 2 0 0 1 2-2z"
     id="path64" />
  <path
     d="M1 5v-.5a.5.5 0 0 1 1 0V5h.5a.5.5 0 0 1 0 1h-2a.5.5 0 0 1 0-1H1zm0 3v-.5a.5.5 0 0 1 1 0V8h.5a.5.5 0 0 1 0 1h-2a.5.5 0 0 1 0-1H1zm0 3v-.5a.5.5 0 0 1 1 0v.5h.5a.5.5 0 0 1 0 1h-2a.5.5 0 0 1 0-1H1z"
     id="path66" />
  <path
     style="fill:#00ff00;stroke-width:0.01895735"
     d="M 0.33037907,5.9588973 C 0.22149189,5.9200836 0.12597653,5.8340243 0.06729858,5.7218619 -0.03319853,5.5297626 0.0135906,5.279056 0.17665996,5.1358791 0.29975528,5.0278 0.35357035,5.0140904 0.69071769,5.0049207 l 0.30588354,-0.00832 0.008319,-0.3058835 C 1.0140904,4.3535704 1.0278,4.2997553 1.1358791,4.17666 1.3327944,3.9523859 1.7055883,3.9646244 1.8860984,4.201289 1.9726544,4.3147715 1.9865045,4.3848462 1.9866241,4.7099001 l 1.137e-4,0.2871512 0.3080569,0.00669 c 0.2925651,0.00635 0.313519,0.00937 0.4166747,0.060025 0.05974,0.029336 0.1343173,0.084516 0.1657279,0.1226221 0.1201633,0.145779 0.144753,0.36373 0.05982,0.5302129 -0.050174,0.098349 -0.188587,0.2195166 -0.2831104,0.2478364 -0.1159884,0.034751 -2.22459288,0.029725 -2.32351967,-0.00554 z"
     id="path76"
     inkscape:connector-curvature="0" />
  <path
     style="fill:#00ff00;stroke-width:0.01895735"
     d="M 2.7677725,15.974715 C 2.1107535,15.897343 1.5065555,15.458241 1.2126652,14.844538 1.0537377,14.512664 1.0142583,14.242801 1.0142338,13.488152 L 1.014218,13 H 1.507109 2 l 3.291e-4,0.535545 c 2.449e-4,0.398566 0.00749,0.569487 0.028314,0.668246 0.072651,0.344506 0.3055369,0.613014 0.6466318,0.74554 l 0.1304124,0.05067 5.127962,0.0053 c 3.7614797,0.0039 5.1625537,-4.45e-4 5.2577747,-0.01624 0.376583,-0.06248 0.698647,-0.364746 0.798953,-0.749848 0.02519,-0.0967 0.02855,-0.836975 0.0283,-6.2337064 -3.09e-4,-6.7509908 0.009,-6.2397795 -0.118,-6.4824044 -0.0823,-0.1572297 -0.276362,-0.3464772 -0.43167,-0.4209574 -0.249628,-0.11971287 0.147285,-0.11161261 -5.4690069,-0.11161261 -4.9333398,0 -5.1419596,0.001385 -5.2511849,0.034857 C 2.4722257,1.1101392 2.2521726,1.287915 2.1255306,1.5289152 2.0148228,1.7395924 2.0007046,1.8440185 2.0003291,2.4549762 L 2,2.9905212 H 1.507109 1.014218 L 1.0145465,2.4928909 C 1.015058,1.7180489 1.0514096,1.4891416 1.2320564,1.1232226 1.4927487,0.59516324 1.9344343,0.2344261 2.5274799,0.06521347 L 2.6729857,0.02369655 7.9431279,0.01872841 C 12.680834,0.01426219 13.229443,0.01678779 13.373355,0.04372726 14.135547,0.18640483 14.73316,0.7438498 14.94485,1.5095945 l 0.05041,0.1823485 v 6.3033175 6.3033175 l -0.05215,0.189574 c -0.223354,0.811921 -0.880542,1.386606 -1.700907,1.487376 -0.194763,0.02392 -10.2710114,0.02314 -10.4744305,-8.13e-4 z"
     id="path78"
     inkscape:connector-curvature="0" />
  <path
     style="fill:#00ff00;stroke-width:0.01895735"
     d="m 0.29004739,8.9368097 c -0.3667076,-0.1733613 -0.36985857,-0.691115 -0.005312,-0.8727765 0.0932477,-0.046467 0.1131363,-0.048867 0.40495048,-0.048867 H 0.9965728 l 0.007286,-0.317761 c 0.00719,-0.3137817 0.00802,-0.3190639 0.065738,-0.421801 0.1670408,-0.2973216 0.5410591,-0.3539747 0.7772957,-0.117738 0.115698,0.115698 0.1297555,0.1702319 0.1363022,0.528768 l 0.00594,0.3254965 0.3352887,0.00628 C 2.69165,8.0252907 2.7166111,8.0316977 2.8365885,8.1499768 3.0765567,8.3865482 3.0191906,8.7849782 2.7239798,8.932088 L 2.6238353,8.9819905 1.5043347,8.9818009 0.38483412,8.9816114 0.29004739,8.9368009 Z"
     id="path80"
     inkscape:connector-curvature="0" />
  <path
     style="fill:#000000;stroke-width:0.01895735"
     d="M 0.33744076,11.959535 C 0.21233187,11.916108 0.07285584,11.776779 0.03798659,11.660396 -0.01751243,11.475156 0.02570139,11.285515 0.15224738,11.158969 0.27606125,11.035155 0.32938542,11.020593 0.68341232,11.013918 l 0.31753558,-0.006 v -0.253743 c 0,-0.139558 0.00927,-0.296955 0.020594,-0.349771 0.042906,-0.200064 0.2180999,-0.363844 0.4185955,-0.391325 0.1976595,-0.027092 0.4130236,0.0958 0.5019883,0.286435 0.040605,0.08701 0.044248,0.120056 0.044418,0.402844 l 1.853e-4,0.308057 0.3080568,4.16e-4 c 0.3438063,4.64e-4 0.4178061,0.01932 0.5419456,0.138097 0.2449488,0.234365 0.1806082,0.642999 -0.1249346,0.793469 l -0.089997,0.04432 -1.0900473,0.0045 c -1.03030448,0.0043 -1.09576198,0.0025 -1.19431284,-0.03169 z"
     id="path82"
     inkscape:connector-curvature="0" />
  <path
     style="fill:#000000;stroke-width:0.01895735"
     d="M 0.33744076,11.959157 C 0.2123677,11.916196 0.07295338,11.777104 0.03798659,11.660396 c -0.07989534,-0.266667 0.04869058,-0.533059 0.30012528,-0.62177 0.0574576,-0.02027 0.16185556,-0.0282 0.37138058,-0.0282 H 1.0009479 v -0.254992 c 0,-0.140245 0.00927,-0.298203 0.020594,-0.351019 0.029718,-0.138569 0.120302,-0.260966 0.2448084,-0.330783 0.089892,-0.05041 0.1225593,-0.05829 0.2369668,-0.0572 0.2055884,0.002 0.3580234,0.102401 0.4440088,0.292577 0.033637,0.0744 0.038624,0.124712 0.038987,0.393365 l 4.163e-4,0.308057 0.3080568,4.16e-4 c 0.2686524,3.63e-4 0.3189689,0.0053 0.393365,0.03899 0.3263958,0.147576 0.4020436,0.54614 0.1512572,0.796927 -0.1517008,0.151701 -0.1322292,0.149545 -1.3442715,0.148833 -0.98245979,-5.77e-4 -1.06045577,-0.003 -1.15769664,-0.03643 z"
     id="path84"
     inkscape:connector-curvature="0" />
  <path
     style="fill:#00ff00;stroke-width:0.01895735"
     d="M 0.33744076,11.959157 C 0.2123677,11.916196 0.07295338,11.777104 0.03798659,11.660396 -0.041863,11.393881 0.08732389,11.123789 0.33501674,11.039392 c 0.0616982,-0.02102 0.16465299,-0.02896 0.37546931,-0.02896 H 1.0009479 V 10.75544 c 0,-0.140245 0.00927,-0.298203 0.020594,-0.351019 0.029718,-0.138569 0.120302,-0.260966 0.2448084,-0.330783 0.089316,-0.05008 0.1232922,-0.05839 0.2369668,-0.0579 0.1510084,6.41e-4 0.244661,0.03993 0.344899,0.144695 0.1187759,0.12414 0.1376324,0.198139 0.1380971,0.541946 l 4.163e-4,0.308057 0.3080568,4.16e-4 c 0.2686524,3.63e-4 0.3189689,0.0053 0.393365,0.03899 0.3263958,0.147576 0.4020436,0.54614 0.1512572,0.796927 -0.1517008,0.151701 -0.1322292,0.149545 -1.3442715,0.148833 -0.98245979,-5.77e-4 -1.06045577,-0.003 -1.15769664,-0.03643 z"
     id="path86"
     inkscape:connector-curvature="0" />
</svg>
